X: 3294
T: BROSE AND BUTTER
%R: slip-jig
B: James Kerr "Merry Melodies" v.3 p.32 #294
Z: 2016 John Chambers <jc:trillian.mit.edu>
M: 9/8
L: 1/8
K: D
|:\
def BBB BBB | def BBB ecA |\
def BBB BBB | c2A Aaf ecA :|
|:\
def faf faf | def faf ecA |\
def faf faf | ecA a^gf ecA :|

%%sep 1 1 500
%%sep 1 1 500

